COLOR/categories 16/16/weather-storm.svg

<svg height="16" width="16" xmlns="http://www.w3.org/2000/svg"><g fill="#808080"><path d="m8.56.084c-1.888.001-3.492 1.165-4.259 2.828l-.055.113-.121.01c-1.745.127-3.125 1.637-3.125 3.473 0 1.919 1.5 3.492 3.357 3.492h8.125c1.392 0 2.518-1.182 2.518-2.615 0-1.087-.653-2-1.578-2.393l-.121-.05-.01-.13c-.119-2.618-2.176-4.726-4.729-4.728z" fill="#627d90"/><path d="m1.0234375 6.2519531c-.0061429.0857944-.0234375.168474-.0234375.2558594 0 1.919 1.5004219 3.4921875 3.3574219 3.4921875h8.1250001c1.392 0 2.517578-1.1822344 2.517578-2.6152344 0-.0972567-.011302-.1909331-.021484-.2851562-.107494 1.3326904-1.175533 2.4003906-2.496094 2.4003906h-8.1250001c-1.7761882 0-3.2111839-1.4435829-3.3339844-3.2480469z" fill="#000" opacity=".2"/><path d="m6.67 9-.26 3.5h1.613l-.38 3.5 2.767-5h-1.91l.324-2z" fill="#ffe500"/><path d="m8.5605469.08398438c-1.888.001-3.4927657 1.16512502-4.2597657 2.82812502l-.0546874.1132812-.1210938.0097656c-1.745.127-3.125 1.6366563-3.125 3.4726563 0 .0835099.0178504.1620423.0234375.2441406.1229214-1.7167789 1.4396167-3.0958415 3.1015625-3.2167969l.1210938-.0097656.0546874-.1132812c.767-1.663 2.3717657-2.82712502 4.2597657-2.82812502h.0019531c2.553.00199999 4.609516 2.11051562 4.728516 4.72851562l.009765.1289062.121094.0507813c.842238.3578372 1.453021 1.1485513 1.556641 2.1074219.005815-.0720946.021484-.1413012.021484-.2148438 0-1.087-.653125-1.9995781-1.578125-2.3925781l-.121094-.0507813-.009765-.1289062c-.119-2.618-2.175516-4.72651562-4.728516-4.72851562z" fill="#f4fbff" opacity=".3"/><path d="m6.6699219 9-.2597657 3.5h.0371094l.2226563-3h2.0722656l.0820313-.5zm1.9121093 2-.0820312.5h1.632812l.277344-.5zm-.6132812 2-.3261719 3 .0683594-.123047.3125-2.876953z" fill="#fff" opacity=".3"/><path d="m8.7421875 9-.2421875 1.5h.0820312l.2421876-1.5zm1.3906245 2-2.4218745 4.376953-.0683594.623047 2.7675779-5zm-3.6855464 1-.0371094.5h1.5585938l.0546875-.5z" fill="#000" opacity=".2"/></g></svg>

<?xml version="1.0" encoding="UTF-8" standalone="no"?>
<svg
   xmlns:dc="http://purl.org/dc/elements/1.1/"
   xmlns:cc="http://creativecommons.org/ns#"
   xmlns:rdf="http://www.w3.org/1999/02/22-rdf-syntax-ns#"
   xmlns:svg="http://www.w3.org/2000/svg"
   xmlns="http://www.w3.org/2000/svg"
   xmlns:sodipodi="http://sodipodi.sourceforge.net/DTD/sodipodi-0.dtd"
   xmlns:inkscape="http://www.inkscape.org/namespaces/inkscape"
   height="16"
   width="16"
   version="1.1"
   id="svg8"
   sodipodi:docname="weather-storm.svg"
   inkscape:version="0.92.4 (5da689c313, 2019-01-14)">
  <metadata
     id="metadata14">
    <rdf:RDF>
      <cc:Work
         rdf:about="">
        <dc:format>image/svg+xml</dc:format>
        <dc:type
           rdf:resource="http://purl.org/dc/dcmitype/StillImage" />
      </cc:Work>
    </rdf:RDF>
  </metadata>
  <defs
     id="defs12" />
  <sodipodi:namedview
     pagecolor="#ffffff"
     bordercolor="#666666"
     borderopacity="1"
     objecttolerance="10"
     gridtolerance="10"
     guidetolerance="10"
     inkscape:pageopacity="0"
     inkscape:pageshadow="2"
     inkscape:window-width="1920"
     inkscape:window-height="1016"
     id="namedview10"
     showgrid="false"
     inkscape:zoom="52.71425"
     inkscape:cx="8"
     inkscape:cy="9.4756162"
     inkscape:window-x="0"
     inkscape:window-y="27"
     inkscape:window-maximized="1"
     inkscape:current-layer="g6" />
  <g
     fill="gray"
     id="g6">
    <path
       d="M 8.56,0.084 C 6.672,0.085 5.068,1.249 4.301,2.912 L 4.246,3.025 4.125,3.035 C 2.38,3.162 1,4.672 1,6.508 1,8.427 2.5,10 4.357,10 h 8.125 C 13.874,10 15,8.818 15,7.385 c 0,-1.087 -0.653,-2 -1.578,-2.393 l -0.121,-0.05 -0.01,-0.13 C 13.172,2.194 11.115,0.086 8.562,0.084 Z"
       font-weight="400"
       overflow="visible"
       style="color:#000000;font-weight:400;line-height:normal;font-family:sans-serif;-inkscape-font-specification:sans-serif;text-indent:0;text-align:start;text-decoration:none;text-decoration-line:none;text-transform:none;overflow:visible;fill:#627d90;fill-opacity:1;stroke:none;marker:none"
       id="path2"
       inkscape:connector-curvature="0"
       sodipodi:nodetypes="ccccssssccccc" />
    <path
       style="color:#000000;font-weight:400;line-height:normal;font-family:sans-serif;-inkscape-font-specification:sans-serif;text-indent:0;text-align:start;text-decoration:none;text-decoration-line:none;text-transform:none;overflow:visible;fill:#000000;fill-opacity:1;stroke:none;marker:none;opacity:0.2"
       d="M 1.0234375 6.2519531 C 1.0172946 6.3377475 1 6.4204271 1 6.5078125 C 1 8.4268125 2.5004219 10 4.3574219 10 L 12.482422 10 C 13.874422 10 15 8.8177656 15 7.3847656 C 15 7.2875089 14.988698 7.1938325 14.978516 7.0996094 C 14.871022 8.4322998 13.802983 9.5 12.482422 9.5 L 4.3574219 9.5 C 2.5812337 9.5 1.146238 8.0564171 1.0234375 6.2519531 z "
       id="path826" />
    <path
       d="M6.67 9l-.26 3.5h1.613l-.38 3.5 2.767-5H8.5l.324-2z"
       id="path4"
       style="fill:#ffe500;fill-opacity:1" />
    <path
       style="color:#000000;font-weight:400;line-height:normal;font-family:sans-serif;-inkscape-font-specification:sans-serif;text-indent:0;text-align:start;text-decoration:none;text-decoration-line:none;text-transform:none;overflow:visible;fill:#f4fbff;fill-opacity:1;stroke:none;marker:none;opacity:0.3"
       d="M 8.5605469 0.083984375 C 6.6725469 0.084984375 5.0677812 1.2491094 4.3007812 2.9121094 L 4.2460938 3.0253906 L 4.125 3.0351562 C 2.38 3.1621562 1 4.6718125 1 6.5078125 C 1 6.5913224 1.0178504 6.6698548 1.0234375 6.7519531 C 1.1463589 5.0351742 2.4630542 3.6561116 4.125 3.5351562 L 4.2460938 3.5253906 L 4.3007812 3.4121094 C 5.0677812 1.7491094 6.6725469 0.58498438 8.5605469 0.58398438 L 8.5625 0.58398438 C 11.1155 0.58598437 13.172016 2.6945 13.291016 5.3125 L 13.300781 5.4414062 L 13.421875 5.4921875 C 14.264113 5.8500247 14.874896 6.6407388 14.978516 7.5996094 C 14.984331 7.5275148 15 7.4583082 15 7.3847656 C 15 6.2977656 14.346875 5.3851875 13.421875 4.9921875 L 13.300781 4.9414062 L 13.291016 4.8125 C 13.172016 2.1945 11.1155 0.085984375 8.5625 0.083984375 L 8.5605469 0.083984375 z "
       id="path821" />
    <path
       style="fill:#ffffff;fill-opacity:1;opacity:0.3"
       d="M 6.6699219 9 L 6.4101562 12.5 L 6.4472656 12.5 L 6.6699219 9.5 L 8.7421875 9.5 L 8.8242188 9 L 6.6699219 9 z M 8.5820312 11 L 8.5 11.5 L 10.132812 11.5 L 10.410156 11 L 8.5820312 11 z M 7.96875 13 L 7.6425781 16 L 7.7109375 15.876953 L 8.0234375 13 L 7.96875 13 z "
       id="path831" />
    <path
       style="fill:#000000;fill-opacity:1;opacity:0.2"
       d="M 8.7421875 9 L 8.5 10.5 L 8.5820312 10.5 L 8.8242188 9 L 8.7421875 9 z M 10.132812 11 L 7.7109375 15.376953 L 7.6425781 16 L 10.410156 11 L 10.132812 11 z M 6.4472656 12 L 6.4101562 12.5 L 7.96875 12.5 L 8.0234375 12 L 6.4472656 12 z "
       id="path836" />
  </g>
</svg>
